src/assets/svg/analyze.svg

<svg width="27" height="27" viewBox="0 0 27 27" fill="none" xmlns="http://www.w3.org/2000/svg">
<path d="M24.325 15.1875H11.8117V2.67416C11.8117 2.20852 11.433 1.81934 10.9816 1.81934C10.9452 1.81934 10.9078 1.82197 10.8704 1.82725C4.59127 2.71424 -0.20967 8.1965 0.00601379 14.7693C0.220643 21.31 5.68973 26.7785 12.2298 26.9931C12.3717 26.9979 12.5141 27 12.6554 27C19.0384 27 24.3039 22.2718 25.1719 16.1283C25.2421 15.6299 24.8281 15.1875 24.325 15.1875ZM12.6554 25.3125C12.5325 25.3125 12.4086 25.3104 12.2852 25.3062C6.62998 25.1205 1.87808 20.3687 1.69246 14.7134C1.52002 9.44051 5.08539 4.86369 10.1242 3.68244V16.875H23.3157C22.1618 21.7492 17.7437 25.3125 12.6554 25.3125ZM15.2288 0.00210937C15.2104 0.000527344 15.1919 0 15.174 0C14.7173 0 14.3429 0.392344 14.3429 0.855879V12.6562H26.1433C26.6253 12.6562 27.0303 12.2507 26.9976 11.7703C26.5625 5.47066 21.5285 0.436641 15.2288 0.00210937ZM16.0304 10.9688V1.7877C20.737 2.51596 24.4827 6.26221 25.2115 10.9688H16.0304Z" fill="#BDCBDA"/>
</svg>

<?xml version="1.0" encoding="utf-8"?>
<!-- Generator: Adobe Illustrator 25.0.1, SVG Export Plug-In . SVG Version: 6.00 Build 0)  -->
<svg version="1.1" id="Ebene_1" xmlns="http://www.w3.org/2000/svg" xmlns:xlink="http://www.w3.org/1999/xlink" x="0px" y="0px"
	 viewBox="0 0 27 27" style="enable-background:new 0 0 27 27;" xml:space="preserve">
<style type="text/css">
	.st0{fill:#FFFFFF;}
</style>
<path class="st0" d="M24.3,15.2H11.8V2.7c0-0.5-0.4-0.9-0.8-0.9c0,0-0.1,0-0.1,0C4.6,2.7-0.2,8.2,0,14.8c0.2,6.5,5.7,12,12.2,12.2
	c0.1,0,0.3,0,0.4,0c6.4,0,11.6-4.7,12.5-10.9C25.2,15.6,24.8,15.2,24.3,15.2z M12.7,25.3c-0.1,0-0.2,0-0.4,0
	C6.6,25.1,1.9,20.4,1.7,14.7c-0.2-5.3,3.4-9.8,8.4-11v13.2h13.2C22.2,21.7,17.7,25.3,12.7,25.3z M15.2,0C15.2,0,15.2,0,15.2,0
	c-0.5,0-0.9,0.4-0.9,0.9v11.8h11.8c0.5,0,0.9-0.4,0.9-0.9C26.6,5.5,21.5,0.4,15.2,0z M16,11V1.8c4.7,0.7,8.5,4.5,9.2,9.2H16z"/>
</svg>
